icons/presentation-filled.svg

<svg xmlns="http://www.w3.org/2000/svg" width="24" height="24" viewBox="0 0 24 24">
    <path fill="#3A3A47" fill-rule="evenodd" d="M21 2c.667 0 1 .333 1 1s-.333 1-1 1v12c0 1.332-.667 1.999-2 2h-4.367l.721 2.689c.173.644-.063 1.052-.707 1.224-.644.173-1.052-.063-1.225-.707L12.563 18h-1.127l-.858 3.206c-.173.644-.581.88-1.225.707-.644-.172-.88-.58-.707-1.224L9.366 18H5c-1.333 0-2-.667-2-2V4c-.667 0-1-.333-1-1s.333-1 1-1h18zm-9 5c-.622.003-.954.341-.996 1.017l-.004.15v4.666c0 .778.333 1.167 1 1.167.622 0 .954-.339.996-1.016l.004-.15V8.166c0-.78-.333-1.17-1-1.167zm4-1c-.622 0-.954.327-.996.98L15 7.125v5.75c0 .748.333 1.123 1 1.125.622.002.954-.325.996-.98l.004-.145v-5.75C17 6.375 16.667 6 16 6zM8 9c-.667 0-1 .417-1 1.25v2.5c0 .833.333 1.25 1 1.25s1-.417 1-1.25v-2.5C9 9.417 8.667 9 8 9z"/>
</svg>

<svg width="24" height="24" viewBox="0 0 24 24" fill="none" xmlns="http://www.w3.org/2000/svg">
<path fill-rule="evenodd" clip-rule="evenodd" d="M3 4C2.333 4 2 3.667 2 3C2 2.333 2.333 2 3 2H21C21.667 2 22 2.333 22 3C22 3.667 21.667 4 21 4V16C21 17.332 20.333 17.999 19 18H14.634L15.354 20.689C15.527 21.333 15.291 21.741 14.647 21.913C14.003 22.086 13.595 21.85 13.422 21.206L12.563 18H11.437L10.577 21.206C10.405 21.85 9.997 22.086 9.353 21.913C8.709 21.741 8.473 21.333 8.646 20.689L9.366 18H5C3.667 18 3 17.333 3 16V4ZM11 8.167V12.833C11 13.611 11.333 14 12 14C12.667 14 13 13.611 13 12.833V8.167C13 7.387 12.667 6.997 12 7C11.333 7.003 11 7.392 11 8.167ZM15 7.125V12.875C15 13.623 15.333 13.998 16 14C16.667 14.002 17 13.627 17 12.875V7.125C17 6.375 16.667 6 16 6C15.333 6 15 6.375 15 7.125ZM7 10.25V12.75C7 13.583 7.333 14 8 14C8.667 14 9 13.583 9 12.75V10.25C9 9.417 8.667 9 8 9C7.333 9 7 9.417 7 10.25Z" fill="#3A3A47"/>
</svg>
